build/img/icon-car.svg

<svg width="56" height="28" viewBox="0 0 56 28" fill="none" xmlns="http://www.w3.org/2000/svg">
<g opacity="0.9">
<path d="M12.833 20.703C12.1888 20.703 11.6659 21.2481 11.6659 21.918C11.6659 22.5914 12.1888 23.1367 12.833 23.1367C13.4774 23.1367 13.9994 22.5915 13.9994 21.918C13.9994 21.2481 13.4774 20.703 12.833 20.703Z" fill="#F7F7F7"/>
<path d="M53.8722 10.5103C51.8506 8.57912 48.347 8.5204 41.489 8.51857C40.9472 7.66341 39.8022 6.08671 37.9069 4.52245C35.4083 2.45945 31.054 -5.42829e-07 24.4999 -5.42829e-07C17.9468 -5.42829e-07 13.5864 2.45774 11.0827 4.51891C9.1823 6.08318 8.03308 7.65987 7.48871 8.51412H6.11811C6.02667 8.49007 5.63958 8.49007 5.54902 8.51412H3.49995C3.19063 8.51412 2.89411 8.6424 2.67536 8.87044L0.341803 11.3022C0.123049 11.5302 0 11.8403 0 12.1627V20.7025C0 21.041 0.135846 21.3652 0.374288 21.5969C0.663918 21.8749 3.27781 24.3263 5.81141 24.3263H7.47679C8.37237 26.4857 10.4359 28 12.8336 28C15.2305 28 17.2941 26.4857 18.1905 24.3263L37.8096 24.3228C38.7052 26.4857 40.7696 28 43.1656 28C45.565 28 47.6277 26.4857 48.5232 24.3228H54.8345C55.4771 24.3228 56 23.7812 56 23.1078C55.9999 16.0741 55.9999 12.5431 53.8722 10.5103ZM36.3671 6.35478C37.2934 7.10835 38.0145 7.86557 38.5528 8.51412H23.3335V2.46219C23.7172 2.44258 24.1059 2.43277 24.4999 2.43277C29.1757 2.43277 33.1679 3.75189 36.3671 6.35478ZM12.6199 6.35387C14.9946 4.42713 17.8033 3.20413 20.9999 2.69901V8.51401H10.4265C10.9666 7.86557 11.6912 7.10755 12.6199 6.35387ZM3.98362 10.9459H4.66635V12.1627H2.81635L3.98362 10.9459ZM12.8335 25.5662C10.9032 25.5662 9.33357 23.9307 9.33357 21.9175C9.33357 19.908 10.9032 18.2689 12.8335 18.2689C14.763 18.2689 16.3336 19.908 16.3336 21.9175C16.3336 23.9308 14.763 25.5662 12.8335 25.5662ZM43.1654 25.5662C41.2377 25.5662 39.6654 23.9307 39.6654 21.9175C39.6654 19.908 41.2377 18.2689 43.1654 18.2689C45.0964 18.2689 46.6653 19.908 46.6653 21.9175C46.6653 23.9308 45.0965 25.5662 43.1654 25.5662ZM48.9999 21.8927C48.9862 18.5504 46.3748 15.839 43.1654 15.839C39.9593 15.839 37.348 18.5504 37.3343 21.8927H18.6664C18.6518 18.5504 16.0413 15.839 12.8336 15.839C9.62593 15.839 7.01456 18.5504 7.00089 21.8927H5.83362C5.83023 21.8927 5.8276 21.8927 5.82421 21.8927H5.81054C4.66208 21.8927 3.13168 20.8094 2.33356 20.1432V14.5946H5.83362C6.47796 14.5946 7.00001 14.0503 7.00001 13.3786V10.9459H8.14081H40.7389C40.7696 10.9494 40.8038 10.9512 40.8363 10.9512C47.0791 10.9512 50.6202 10.9512 52.1344 12.1627H50.1519C49.506 12.1627 48.9847 12.7069 48.9847 13.3786C48.9847 14.0503 49.506 14.5946 50.1519 14.5946H53.3135C53.6279 16.2416 53.6622 18.6324 53.6656 21.8927H48.9999Z" fill="#F7F7F7"/>
<path d="M43.1647 20.703C42.5221 20.703 41.9993 21.2481 41.9993 21.918C41.9993 22.5914 42.5221 23.1367 43.1647 23.1367C43.8107 23.1367 44.3337 22.5915 44.3337 21.918C44.3337 21.2481 43.8108 20.703 43.1647 20.703Z" fill="#F7F7F7"/>
<path d="M26.8335 13.3783H24.4998C23.8555 13.3783 23.3334 13.9225 23.3334 14.5942C23.3334 15.2659 23.8555 15.8111 24.4998 15.8111H26.8334C27.4777 15.8111 27.9998 15.2659 27.9998 14.5942C27.9998 13.9225 27.4778 13.3783 26.8335 13.3783Z" fill="#F7F7F7"/>
</g>
</svg>

<svg width="56" height="28" fill="none" xmlns="http://www.w3.org/2000/svg"><g opacity=".9" fill="#F7F7F7"><path d="M12.833 20.703c-.644 0-1.167.545-1.167 1.215 0 .673.523 1.219 1.167 1.219s1.166-.546 1.166-1.219c0-.67-.522-1.215-1.166-1.215z"/><path d="M53.872 10.51c-2.021-1.93-5.525-1.99-12.382-1.99-.542-.856-1.687-2.432-3.582-3.997C35.408 2.46 31.054 0 24.5 0c-6.553 0-10.914 2.458-13.417 4.519-1.9 1.564-3.05 3.14-3.594 3.995h-1.37a2.253 2.253 0 00-.57 0h-2.05c-.308 0-.605.128-.824.356L.342 11.302a1.245 1.245 0 00-.342.86v8.54c0 .339.136.663.374.895.29.278 2.904 2.73 5.437 2.73h1.666C8.372 26.485 10.436 28 12.834 28c2.396 0 4.46-1.514 5.357-3.674l19.619-.003C38.705 26.486 40.77 28 43.166 28c2.399 0 4.462-1.514 5.357-3.677h6.311c.643 0 1.166-.542 1.166-1.215 0-7.034 0-10.565-2.128-12.598zM36.367 6.355c.926.753 1.648 1.51 2.186 2.16h-15.22V2.461c.384-.02.773-.03 1.167-.03 4.676 0 8.668 1.32 11.867 3.923zM12.62 6.354c2.375-1.927 5.183-3.15 8.38-3.655v5.815H10.427a15.9 15.9 0 012.193-2.16zm-8.636 4.592h.682v1.217h-1.85l1.168-1.217zm8.85 14.62c-1.93 0-3.5-1.635-3.5-3.648 0-2.01 1.57-3.65 3.5-3.65 1.929 0 3.5 1.64 3.5 3.65 0 2.013-1.571 3.648-3.5 3.648zm30.331 0c-1.927 0-3.5-1.635-3.5-3.648 0-2.01 1.573-3.65 3.5-3.65 1.931 0 3.5 1.64 3.5 3.65 0 2.013-1.569 3.648-3.5 3.648zM49 21.893c-.014-3.343-2.625-6.054-5.835-6.054-3.206 0-5.817 2.711-5.83 6.054h-18.67c-.014-3.343-2.625-6.054-5.832-6.054-3.208 0-5.82 2.711-5.833 6.054H5.81c-1.149 0-2.68-1.084-3.477-1.75v-5.548h3.5c.644 0 1.166-.545 1.166-1.216v-2.433h33.739c.03.003.065.005.097.005 6.243 0 9.784 0 11.298 1.212h-1.982c-.646 0-1.167.544-1.167 1.216 0 .671.521 1.216 1.167 1.216h3.161c.315 1.647.35 4.037.353 7.298H49z"/><path d="M43.165 20.703c-.643 0-1.166.545-1.166 1.215 0 .673.523 1.219 1.166 1.219.646 0 1.169-.546 1.169-1.219 0-.67-.523-1.215-1.17-1.215zm-16.331-7.325H24.5c-.645 0-1.167.544-1.167 1.216 0 .672.523 1.217 1.167 1.217h2.333c.645 0 1.167-.545 1.167-1.217 0-.671-.522-1.216-1.166-1.216z"/></g></svg>
